svgs/thin/face-dizzy.svg

<svg xmlns="http://www.w3.org/2000/svg" viewBox="0 0 512 512"><!--! Font Awesome Pro 6.0.0-alpha3 by @fontawesome - https://fontawesome.com License - https://fontawesome.com/license (Commercial License) --><path d="M256 288c-35.35 0-64.04 28.65-64.04 64S220.7 416 256 416s64.04-28.65 64.04-64S291.3 288 256 288zM256 400c-26.47 0-48-21.53-48-48S229.5 304 256 304s48 21.53 48 48S282.5 400 256 400zM200 240c2.047 0 4.094-.7813 5.656-2.344c3.125-3.125 3.125-8.188 0-11.31L171.3 192l34.34-34.34c3.125-3.125 3.125-8.188 0-11.31s-8.188-3.125-11.31 0L160 180.7L125.7 146.3c-3.125-3.125-8.188-3.125-11.31 0s-3.125 8.188 0 11.31L148.7 192L114.3 226.3c-3.125 3.125-3.125 8.188 0 11.31C115.9 239.2 117.1 240 120 240s4.094-.7813 5.656-2.344L160 203.3l34.34 34.34C195.9 239.2 197.1 240 200 240zM397.7 146.3c-3.125-3.125-8.188-3.125-11.31 0L352 180.7l-34.34-34.34c-3.125-3.125-8.188-3.125-11.31 0s-3.125 8.188 0 11.31L340.7 192l-34.34 34.34c-3.125 3.125-3.125 8.188 0 11.31C307.9 239.2 309.1 240 312 240s4.094-.7813 5.656-2.344L352 203.3l34.34 34.34C387.9 239.2 389.1 240 392 240s4.094-.7813 5.656-2.344c3.125-3.125 3.125-8.188 0-11.31L363.3 192l34.34-34.34C400.8 154.5 400.8 149.5 397.7 146.3zM256 0C114.6 0 0 114.6 0 256s114.6 256 256 256s256-114.6 256-256S397.4 0 256 0zM256 496c-132.3 0-240-107.7-240-240S123.7 16 256 16s240 107.7 240 240S388.3 496 256 496z"/></svg>

<svg xmlns="http://www.w3.org/2000/svg" viewBox="0 0 512 512"><!-- Font Awesome Pro 6.0.0-alpha2 by @fontawesome - https://fontawesome.com License - https://fontawesome.com/license (Commercial License) --><path d="M256 16C123.451 16 16 123.451 16 256S123.451 496 256 496S496 388.549 496 256S388.549 16 256 16ZM256 480C132.486 480 32 379.514 32 256S132.486 32 256 32S480 132.486 480 256S379.514 480 256 480ZM200 240C202.047 240 204.094 239.219 205.656 237.656C208.781 234.531 208.781 229.469 205.656 226.344L171.312 192L205.656 157.656C208.781 154.531 208.781 149.469 205.656 146.344S197.469 143.219 194.344 146.344L160 180.688L125.656 146.344C122.531 143.219 117.469 143.219 114.344 146.344S111.219 154.531 114.344 157.656L148.688 192L114.344 226.344C111.219 229.469 111.219 234.531 114.344 237.656C115.906 239.219 117.953 240 120 240S124.094 239.219 125.656 237.656L160 203.312L194.344 237.656C195.906 239.219 197.953 240 200 240ZM397.656 146.344C394.531 143.219 389.469 143.219 386.344 146.344L352 180.688L317.656 146.344C314.531 143.219 309.469 143.219 306.344 146.344S303.219 154.531 306.344 157.656L340.688 192L306.344 226.344C303.219 229.469 303.219 234.531 306.344 237.656C307.906 239.219 309.953 240 312 240S316.094 239.219 317.656 237.656L352 203.312L386.344 237.656C387.906 239.219 389.953 240 392 240S396.094 239.219 397.656 237.656C400.781 234.531 400.781 229.469 397.656 226.344L363.312 192L397.656 157.656C400.781 154.531 400.781 149.469 397.656 146.344ZM256 288C220.654 288 192 316.654 192 352S220.654 416 256 416S320 387.346 320 352S291.346 288 256 288ZM256 400C229.533 400 208 378.467 208 352S229.533 304 256 304S304 325.533 304 352S282.467 400 256 400Z"/></svg>
